; generated by Slic3r 0.9.10b on 2013-11-21 at 13:33:23

; layer_height = 0.2
; perimeters = 3
; top_solid_layers = 3
; bottom_solid_layers = 3
; fill_density = 0.4
; perimeter_speed = 30
; infill_speed = 60
; travel_speed = 130
; nozzle_diameter = 0.5
; filament_diameter = 3
; extrusion_multiplier = 1
; perimeters extrusion width = 0.85mm
; infill extrusion width = 1.02mm
; solid infill extrusion width = 0.85mm
; top infill extrusion width = 0.85mm
; first layer extrusion width = 0.40mm

G21 ; set units to millimeters
M107
M104 S200 ; set temperature
G28 ; home all axes
G1 Z5 F5000 ; lift nozzle

M109 S200 ; wait for temperature to be reached
G90 ; use absolute coordinates
G92 E0
M82 ; use absolute distances for extrusion
G1 F1800.000 E-1.00000
G92 E0
G1 Z0.200 F7800.000
G1 X92.960 Y92.960
G1 F1800.000 E1.00000
G1 X93.930 Y92.160 F600.000 E1.01499
G1 X95.040 Y91.570 E1.02998
G1 X96.250 Y91.200 E1.04507
G1 X97.500 Y91.080 E1.06005
G1 X102.500 Y91.080 E1.11967
G1 X103.750 Y91.200 E1.13465
G1 X104.960 Y91.570 E1.14973
G1 X106.070 Y92.160 E1.16473
G1 X107.040 Y92.960 E1.17972
G1 X107.840 Y93.930 E1.19471
G1 X108.430 Y95.040 E1.20970
G1 X108.800 Y96.250 E1.22479
G1 X108.920 Y97.500 E1.23977
G1 X108.920 Y102.500 E1.29939
G1 X108.800 Y103.750 E1.31436
G1 X108.430 Y104.960 E1.32945
G1 X107.840 Y106.070 E1.34444
G1 X107.040 Y107.040 E1.35944
G1 X106.070 Y107.840 E1.37443
G1 X104.960 Y108.430 E1.38942
G1 X103.750 Y108.800 E1.40451
G1 X102.500 Y108.920 E1.41948
G1 X97.500 Y108.920 E1.47911
G1 X96.250 Y108.800 E1.49408
G1 X95.040 Y108.430 E1.50917
G1 X93.930 Y107.840 E1.52416
G1 X92.960 Y107.040 E1.53916
G1 X92.160 Y106.070 E1.55415
G1 X91.570 Y104.960 E1.56914
G1 X91.200 Y103.750 E1.58423
G1 X91.080 Y102.500 E1.59920
G1 X91.080 Y97.500 E1.65883
G1 X91.200 Y96.250 E1.67380
G1 X91.570 Y95.040 E1.68889
G1 X92.160 Y93.930 E1.70388
G1 X92.920 Y93.009 E1.71812
G1 F1800.000 E0.71812
G92 E0
G1 X98.554 Y98.554 F7800.000
G1 F1800.000 E1.00000
G1 X101.446 Y98.554 F600.000 E1.03450
G1 X101.446 Y101.446 E1.06899
G1 X98.554 Y101.446 E1.10349
G1 X98.554 Y98.617 E1.13723
G1 X98.132 Y98.132 F7800.000
G1 X101.868 Y98.132 F600.000 E1.18177
G1 X101.868 Y101.868 E1.22632
G1 X98.132 Y101.868 E1.27087
G1 X98.132 Y98.195 E1.31466
G1 X97.711 Y97.711 F7800.000
G1 X102.289 Y97.711 F600.000 E1.36926
G1 X102.289 Y102.289 E1.42386
G1 X97.711 Y102.289 E1.47846
G1 X97.711 Y97.774 E1.53230
G1 X98.076 Y97.921 F7800.000
G1 X100.654 Y98.859
G1 X101.141 Y99.346 F600.000 E1.54054
G1 X101.141 Y99.944 E1.54770
G1 X100.056 Y98.859 E1.56608
G1 X99.457 Y98.859 E1.57324
G1 X101.141 Y100.543 E1.60174
G1 X101.141 Y101.141 E1.60890
G1 X98.859 Y98.859 E1.64753
G1 X98.859 Y99.457 E1.65469
G1 X100.543 Y101.141 E1.68319
G1 X99.944 Y101.141 E1.69035
G1 X98.859 Y100.056 E1.70872
G1 X98.859 Y100.654 E1.71589
G1 X99.346 Y101.141 E1.72413
M106 S255
G1 F1800.000 E0.72413
G92 E0
G1 Z0.400 F7800.000
G1 X99.518 Y100.482
G1 F1800.000 E1.00000
G1 X99.518 Y99.518 F600.000 E1.02203
G1 X100.482 Y99.518 E1.04405
G1 X100.482 Y100.482 E1.06608
G1 X99.639 Y100.482 E1.08534
G1 X98.711 Y101.289 F7800.000
G1 X98.711 Y98.711 F600.000 E1.14423
G1 X101.289 Y98.711 E1.20312
G1 X101.289 Y101.289 E1.26201
G1 X98.832 Y101.289 E1.31813
G1 X97.904 Y102.096 F7800.000
G1 X97.904 Y97.904 F600.000 E1.41388
G1 X102.096 Y97.904 E1.50963
G1 X102.096 Y102.096 E1.60538
G1 X98.025 Y102.096 E1.69836
G1 X98.307 Y101.398 F7800.000
G1 F1800.000 E0.69836
G92 E0
G1 Z0.600 F7800.000
G1 X99.518 Y100.482
G1 F1800.000 E1.00000
G1 X99.518 Y99.518 F600.000 E1.02203
G1 X100.482 Y99.518 E1.04405
G1 X100.482 Y100.482 E1.06608
G1 X99.639 Y100.482 E1.08534
G1 X98.711 Y101.289 F7800.000
G1 X98.711 Y98.711 F600.000 E1.14423
G1 X101.289 Y98.711 E1.20312
G1 X101.289 Y101.289 E1.26201
G1 X98.832 Y101.289 E1.31813
G1 X97.904 Y102.096 F7800.000
G1 X97.904 Y97.904 F600.000 E1.41388
G1 X102.096 Y97.904 E1.50963
G1 X102.096 Y102.096 E1.60538
G1 X98.025 Y102.096 E1.69836
G1 X98.307 Y101.398 F7800.000
G1 F1800.000 E0.69836
G92 E0
G1 Z0.800 F7800.000
G1 X99.518 Y100.482
G1 F1800.000 E1.00000
G1 X99.518 Y99.518 F600.000 E1.02203
G1 X100.482 Y99.518 E1.04405
G1 X100.482 Y100.482 E1.06608
G1 X99.639 Y100.482 E1.08534
G1 X98.711 Y101.289 F7800.000
G1 X98.711 Y98.711 F600.000 E1.14423
G1 X101.289 Y98.711 E1.20312
G1 X101.289 Y101.289 E1.26201
G1 X98.832 Y101.289 E1.31813
G1 X97.904 Y102.096 F7800.000
G1 X97.904 Y97.904 F600.000 E1.41388
G1 X102.096 Y97.904 E1.50963
G1 X102.096 Y102.096 E1.60538
G1 X98.025 Y102.096 E1.69836
G1 X98.307 Y101.398 F7800.000
G1 F1800.000 E0.69836
G92 E0
G1 Z1.000 F7800.000
G1 X99.518 Y100.482
G1 F1800.000 E1.00000
G1 X99.518 Y99.518 F600.000 E1.02203
G1 X100.482 Y99.518 E1.04405
G1 X100.482 Y100.482 E1.06608
G1 X99.639 Y100.482 E1.08534
G1 X98.711 Y101.289 F7800.000
G1 X98.711 Y98.711 F600.000 E1.14423
G1 X101.289 Y98.711 E1.20312
G1 X101.289 Y101.289 E1.26201
G1 X98.832 Y101.289 E1.31813
G1 X97.904 Y102.096 F7800.000
G1 X97.904 Y97.904 F600.000 E1.41388
G1 X102.096 Y97.904 E1.50963
G1 X102.096 Y102.096 E1.60538
G1 X98.025 Y102.096 E1.69836
G1 X98.307 Y101.398 F7800.000
G1 F1800.000 E0.69836
G92 E0
G1 Z1.200 F7800.000
G1 X99.518 Y100.482
G1 F1800.000 E1.00000
G1 X99.518 Y99.518 F600.000 E1.02203
G1 X100.482 Y99.518 E1.04405
G1 X100.482 Y100.482 E1.06608
G1 X99.639 Y100.482 E1.08534
G1 X98.711 Y101.289 F7800.000
G1 X98.711 Y98.711 F600.000 E1.14423
G1 X101.289 Y98.711 E1.20312
G1 X101.289 Y101.289 E1.26201
G1 X98.832 Y101.289 E1.31813
G1 X97.904 Y102.096 F7800.000
G1 X97.904 Y97.904 F600.000 E1.41388
G1 X102.096 Y97.904 E1.50963
G1 X102.096 Y102.096 E1.60538
G1 X98.025 Y102.096 E1.69836
G1 X98.307 Y101.398 F7800.000
G1 F1800.000 E0.69836
G92 E0
G1 Z1.400 F7800.000
G1 X99.518 Y100.482
G1 F1800.000 E1.00000
G1 X99.518 Y99.518 F600.000 E1.02203
G1 X100.482 Y99.518 E1.04405
G1 X100.482 Y100.482 E1.06608
G1 X99.639 Y100.482 E1.08534
G1 X98.711 Y101.289 F7800.000
G1 X98.711 Y98.711 F600.000 E1.14423
G1 X101.289 Y98.711 E1.20312
G1 X101.289 Y101.289 E1.26201
G1 X98.832 Y101.289 E1.31813
G1 X97.904 Y102.096 F7800.000
G1 X97.904 Y97.904 F600.000 E1.41388
G1 X102.096 Y97.904 E1.50963
G1 X102.096 Y102.096 E1.60538
G1 X98.025 Y102.096 E1.69836
G1 X98.307 Y101.398 F7800.000
G1 F1800.000 E0.69836
G92 E0
G1 Z1.600 F7800.000
G1 X99.518 Y100.482
G1 F1800.000 E1.00000
G1 X99.518 Y99.518 F600.000 E1.02203
G1 X100.482 Y99.518 E1.04405
G1 X100.482 Y100.482 E1.06608
G1 X99.639 Y100.482 E1.08534
G1 X98.711 Y101.289 F7800.000
G1 X98.711 Y98.711 F600.000 E1.14423
G1 X101.289 Y98.711 E1.20312
G1 X101.289 Y101.289 E1.26201
G1 X98.832 Y101.289 E1.31813
G1 X97.904 Y102.096 F7800.000
G1 X97.904 Y97.904 F600.000 E1.41388
G1 X102.096 Y97.904 E1.50963
G1 X102.096 Y102.096 E1.60538
G1 X98.025 Y102.096 E1.69836
G1 X98.307 Y101.398 F7800.000
G1 F1800.000 E0.69836
G92 E0
G1 Z1.800 F7800.000
G1 X99.518 Y100.482
G1 F1800.000 E1.00000
G1 X99.518 Y99.518 F600.000 E1.02203
G1 X100.482 Y99.518 E1.04405
G1 X100.482 Y100.482 E1.06608
G1 X99.639 Y100.482 E1.08534
G1 X98.711 Y101.289 F7800.000
G1 X98.711 Y98.711 F600.000 E1.14423
G1 X101.289 Y98.711 E1.20312
G1 X101.289 Y101.289 E1.26201
G1 X98.832 Y101.289 E1.31813
G1 X97.904 Y102.096 F7800.000
G1 X97.904 Y97.904 F600.000 E1.41388
G1 X102.096 Y97.904 E1.50963
G1 X102.096 Y102.096 E1.60538
G1 X98.025 Y102.096 E1.69836
G1 X98.307 Y101.398 F7800.000
G1 F1800.000 E0.69836
G92 E0
G1 Z2.000 F7800.000
G1 X99.518 Y100.482
G1 F1800.000 E1.00000
G1 X99.518 Y99.518 F600.000 E1.02203
G1 X100.482 Y99.518 E1.04405
G1 X100.482 Y100.482 E1.06608
G1 X99.639 Y100.482 E1.08534
G1 X98.711 Y101.289 F7800.000
G1 X98.711 Y98.711 F600.000 E1.14423
G1 X101.289 Y98.711 E1.20312
G1 X101.289 Y101.289 E1.26201
G1 X98.832 Y101.289 E1.31813
G1 X97.904 Y102.096 F7800.000
G1 X97.904 Y97.904 F600.000 E1.41388
G1 X102.096 Y97.904 E1.50963
G1 X102.096 Y102.096 E1.60538
G1 X98.025 Y102.096 E1.69836
G1 X98.307 Y101.398 F7800.000
G1 F1800.000 E0.69836
G92 E0
G1 Z2.200 F7800.000
G1 X99.518 Y100.482
G1 F1800.000 E1.00000
G1 X99.518 Y99.518 F600.000 E1.02203
G1 X100.482 Y99.518 E1.04405
G1 X100.482 Y100.482 E1.06608
G1 X99.639 Y100.482 E1.08534
G1 X98.711 Y101.289 F7800.000
G1 X98.711 Y98.711 F600.000 E1.14423
G1 X101.289 Y98.711 E1.20312
G1 X101.289 Y101.289 E1.26201
G1 X98.832 Y101.289 E1.31813
G1 X97.904 Y102.096 F7800.000
G1 X97.904 Y97.904 F600.000 E1.41388
G1 X102.096 Y97.904 E1.50963
G1 X102.096 Y102.096 E1.60538
G1 X98.025 Y102.096 E1.69836
G1 X98.307 Y101.398 F7800.000
G1 F1800.000 E0.69836
G92 E0
G1 Z2.400 F7800.000
G1 X99.518 Y100.482
G1 F1800.000 E1.00000
G1 X99.518 Y99.518 F600.000 E1.02203
G1 X100.482 Y99.518 E1.04405
G1 X100.482 Y100.482 E1.06608
G1 X99.639 Y100.482 E1.08534
G1 X98.711 Y101.289 F7800.000
G1 X98.711 Y98.711 F600.000 E1.14423
G1 X101.289 Y98.711 E1.20312
G1 X101.289 Y101.289 E1.26201
G1 X98.832 Y101.289 E1.31813
G1 X97.904 Y102.096 F7800.000
G1 X97.904 Y97.904 F600.000 E1.41388
G1 X102.096 Y97.904 E1.50963
G1 X102.096 Y102.096 E1.60538
G1 X98.025 Y102.096 E1.69836
G1 X98.307 Y101.398 F7800.000
G1 F1800.000 E0.69836
G92 E0
G1 Z2.600 F7800.000
G1 X99.518 Y100.482
G1 F1800.000 E1.00000
G1 X99.518 Y99.518 F600.000 E1.02203
G1 X100.482 Y99.518 E1.04405
G1 X100.482 Y100.482 E1.06608
G1 X99.639 Y100.482 E1.08534
G1 X98.711 Y101.289 F7800.000
G1 X98.711 Y98.711 F600.000 E1.14423
G1 X101.289 Y98.711 E1.20312
G1 X101.289 Y101.289 E1.26201
G1 X98.832 Y101.289 E1.31813
G1 X97.904 Y102.096 F7800.000
G1 X97.904 Y97.904 F600.000 E1.41388
G1 X102.096 Y97.904 E1.50963
G1 X102.096 Y102.096 E1.60538
G1 X98.025 Y102.096 E1.69836
G1 X98.307 Y101.398 F7800.000
G1 F1800.000 E0.69836
G92 E0
G1 Z2.800 F7800.000
G1 X99.518 Y100.482
G1 F1800.000 E1.00000
G1 X99.518 Y99.518 F600.000 E1.02203
G1 X100.482 Y99.518 E1.04405
G1 X100.482 Y100.482 E1.06608
G1 X99.639 Y100.482 E1.08534
G1 X98.711 Y101.289 F7800.000
G1 X98.711 Y98.711 F600.000 E1.14423
G1 X101.289 Y98.711 E1.20312
G1 X101.289 Y101.289 E1.26201
G1 X98.832 Y101.289 E1.31813
G1 X97.904 Y102.096 F7800.000
G1 X97.904 Y97.904 F600.000 E1.41388
G1 X102.096 Y97.904 E1.50963
G1 X102.096 Y102.096 E1.60538
G1 X98.025 Y102.096 E1.69836
G1 X98.307 Y101.398 F7800.000
G1 F1800.000 E0.69836
G92 E0
G1 Z3.000 F7800.000
G1 X99.518 Y100.482
G1 F1800.000 E1.00000
G1 X99.518 Y99.518 F600.000 E1.02203
G1 X100.482 Y99.518 E1.04405
G1 X100.482 Y100.482 E1.06608
G1 X99.639 Y100.482 E1.08534
G1 X98.711 Y101.289 F7800.000
G1 X98.711 Y98.711 F600.000 E1.14423
G1 X101.289 Y98.711 E1.20312
G1 X101.289 Y101.289 E1.26201
G1 X98.832 Y101.289 E1.31813
G1 X97.904 Y102.096 F7800.000
G1 X97.904 Y97.904 F600.000 E1.41388
G1 X102.096 Y97.904 E1.50963
G1 X102.096 Y102.096 E1.60538
G1 X98.025 Y102.096 E1.69836
G1 X98.307 Y101.398 F7800.000
G1 F1800.000 E0.69836
G92 E0
G1 Z3.200 F7800.000
G1 X99.518 Y100.482
G1 F1800.000 E1.00000
G1 X99.518 Y99.518 F600.000 E1.02203
G1 X100.482 Y99.518 E1.04405
G1 X100.482 Y100.482 E1.06608
G1 X99.639 Y100.482 E1.08534
G1 X98.711 Y101.289 F7800.000
G1 X98.711 Y98.711 F600.000 E1.14423
G1 X101.289 Y98.711 E1.20312
G1 X101.289 Y101.289 E1.26201
G1 X98.832 Y101.289 E1.31813
G1 X97.904 Y102.096 F7800.000
G1 X97.904 Y97.904 F600.000 E1.41388
G1 X102.096 Y97.904 E1.50963
G1 X102.096 Y102.096 E1.60538
G1 X98.025 Y102.096 E1.69836
G1 X98.307 Y101.398 F7800.000
G1 F1800.000 E0.69836
G92 E0
G1 Z3.400 F7800.000
G1 X99.518 Y100.482
G1 F1800.000 E1.00000
G1 X99.518 Y99.518 F600.000 E1.02203
G1 X100.482 Y99.518 E1.04405
G1 X100.482 Y100.482 E1.06608
G1 X99.639 Y100.482 E1.08534
G1 X98.711 Y101.289 F7800.000
G1 X98.711 Y98.711 F600.000 E1.14423
G1 X101.289 Y98.711 E1.20312
G1 X101.289 Y101.289 E1.26201
G1 X98.832 Y101.289 E1.31813
G1 X97.904 Y102.096 F7800.000
G1 X97.904 Y97.904 F600.000 E1.41388
G1 X102.096 Y97.904 E1.50963
G1 X102.096 Y102.096 E1.60538
G1 X98.025 Y102.096 E1.69836
G1 X98.307 Y101.398 F7800.000
G1 F1800.000 E0.69836
G92 E0
G1 Z3.600 F7800.000
G1 X99.518 Y100.482
G1 F1800.000 E1.00000
G1 X99.518 Y99.518 F600.000 E1.02203
G1 X100.482 Y99.518 E1.04405
G1 X100.482 Y100.482 E1.06608
G1 X99.639 Y100.482 E1.08534
G1 X98.711 Y101.289 F7800.000
G1 X98.711 Y98.711 F600.000 E1.14423
G1 X101.289 Y98.711 E1.20312
G1 X101.289 Y101.289 E1.26201
G1 X98.832 Y101.289 E1.31813
G1 X97.904 Y102.096 F7800.000
G1 X97.904 Y97.904 F600.000 E1.41388
G1 X102.096 Y97.904 E1.50963
G1 X102.096 Y102.096 E1.60538
G1 X98.025 Y102.096 E1.69836
G1 X98.307 Y101.398 F7800.000
G1 F1800.000 E0.69836
G92 E0
G1 Z3.800 F7800.000
G1 X99.518 Y100.482
G1 F1800.000 E1.00000
G1 X99.518 Y99.518 F600.000 E1.02203
G1 X100.482 Y99.518 E1.04405
G1 X100.482 Y100.482 E1.06608
G1 X99.639 Y100.482 E1.08534
G1 X98.711 Y101.289 F7800.000
G1 X98.711 Y98.711 F600.000 E1.14423
G1 X101.289 Y98.711 E1.20312
G1 X101.289 Y101.289 E1.26201
G1 X98.832 Y101.289 E1.31813
G1 X97.904 Y102.096 F7800.000
G1 X97.904 Y97.904 F600.000 E1.41388
G1 X102.096 Y97.904 E1.50963
G1 X102.096 Y102.096 E1.60538
G1 X98.025 Y102.096 E1.69836
G1 X98.307 Y101.398 F7800.000
G1 F1800.000 E0.69836
G92 E0
G1 Z4.000 F7800.000
G1 X99.518 Y100.482
G1 F1800.000 E1.00000
G1 X99.518 Y99.518 F600.000 E1.02203
G1 X100.482 Y99.518 E1.04405
G1 X100.482 Y100.482 E1.06608
G1 X99.639 Y100.482 E1.08534
G1 X98.711 Y101.289 F7800.000
G1 X98.711 Y98.711 F600.000 E1.14423
G1 X101.289 Y98.711 E1.20312
G1 X101.289 Y101.289 E1.26201
G1 X98.832 Y101.289 E1.31813
G1 X97.904 Y102.096 F7800.000
G1 X97.904 Y97.904 F600.000 E1.41388
G1 X102.096 Y97.904 E1.50963
G1 X102.096 Y102.096 E1.60538
G1 X98.025 Y102.096 E1.69836
G1 X98.307 Y101.398 F7800.000
G1 F1800.000 E0.69836
G92 E0
G1 Z4.200 F7800.000
G1 X99.518 Y100.482
G1 F1800.000 E1.00000
G1 X99.518 Y99.518 F600.000 E1.02203
G1 X100.482 Y99.518 E1.04405
G1 X100.482 Y100.482 E1.06608
G1 X99.639 Y100.482 E1.08534
G1 X98.711 Y101.289 F7800.000
G1 X98.711 Y98.711 F600.000 E1.14423
G1 X101.289 Y98.711 E1.20312
G1 X101.289 Y101.289 E1.26201
G1 X98.832 Y101.289 E1.31813
G1 X97.904 Y102.096 F7800.000
G1 X97.904 Y97.904 F600.000 E1.41388
G1 X102.096 Y97.904 E1.50963
G1 X102.096 Y102.096 E1.60538
G1 X98.025 Y102.096 E1.69836
G1 X98.307 Y101.398 F7800.000
G1 F1800.000 E0.69836
G92 E0
G1 Z4.400 F7800.000
G1 X99.518 Y100.482
G1 F1800.000 E1.00000
G1 X99.518 Y99.518 F600.000 E1.02203
G1 X100.482 Y99.518 E1.04405
G1 X100.482 Y100.482 E1.06608
G1 X99.639 Y100.482 E1.08534
G1 X98.711 Y101.289 F7800.000
G1 X98.711 Y98.711 F600.000 E1.14423
G1 X101.289 Y98.711 E1.20312
G1 X101.289 Y101.289 E1.26201
G1 X98.832 Y101.289 E1.31813
G1 X97.904 Y102.096 F7800.000
G1 X97.904 Y97.904 F600.000 E1.41388
G1 X102.096 Y97.904 E1.50963
G1 X102.096 Y102.096 E1.60538
G1 X98.025 Y102.096 E1.69836
G1 X98.307 Y101.398 F7800.000
G1 F1800.000 E0.69836
G92 E0
G1 Z4.600 F7800.000
G1 X99.518 Y100.482
G1 F1800.000 E1.00000
G1 X99.518 Y99.518 F600.000 E1.02203
G1 X100.482 Y99.518 E1.04405
G1 X100.482 Y100.482 E1.06608
G1 X99.639 Y100.482 E1.08534
G1 X98.711 Y101.289 F7800.000
G1 X98.711 Y98.711 F600.000 E1.14423
G1 X101.289 Y98.711 E1.20312
G1 X101.289 Y101.289 E1.26201
G1 X98.832 Y101.289 E1.31813
G1 X97.904 Y102.096 F7800.000
G1 X97.904 Y97.904 F600.000 E1.41388
G1 X102.096 Y97.904 E1.50963
G1 X102.096 Y102.096 E1.60538
G1 X98.025 Y102.096 E1.69836
G1 X98.307 Y101.398 F7800.000
G1 F1800.000 E0.69836
G92 E0
G1 Z4.800 F7800.000
G1 X99.518 Y100.482
G1 F1800.000 E1.00000
G1 X99.518 Y99.518 F600.000 E1.02203
G1 X100.482 Y99.518 E1.04405
G1 X100.482 Y100.482 E1.06608
G1 X99.639 Y100.482 E1.08534
G1 X98.711 Y101.289 F7800.000
G1 X98.711 Y98.711 F600.000 E1.14423
G1 X101.289 Y98.711 E1.20312
G1 X101.289 Y101.289 E1.26201
G1 X98.832 Y101.289 E1.31813
G1 X97.904 Y102.096 F7800.000
G1 X97.904 Y97.904 F600.000 E1.41388
G1 X102.096 Y97.904 E1.50963
G1 X102.096 Y102.096 E1.60538
G1 X98.025 Y102.096 E1.69836
G1 X98.307 Y101.398 F7800.000
G1 F1800.000 E0.69836
G92 E0
G1 Z5.000 F7800.000
G1 X99.518 Y100.482
G1 F1800.000 E1.00000
G1 X99.518 Y99.518 F600.000 E1.02203
G1 X100.482 Y99.518 E1.04405
G1 X100.482 Y100.482 E1.06608
G1 X99.639 Y100.482 E1.08534
G1 X98.711 Y101.289 F7800.000
G1 X98.711 Y98.711 F600.000 E1.14423
G1 X101.289 Y98.711 E1.20312
G1 X101.289 Y101.289 E1.26201
G1 X98.832 Y101.289 E1.31813
