; generated by Slic3r 0.8.2 on 2013-07-16 at 10:30:53

; layer_height = 0.4
; perimeters = 3
; solid_layers = 3
; fill_density = 0
; nozzle_diameter = 0.5
; filament_diameter = 3
; extrusion_multiplier = 1
; perimeter_speed = 30
; infill_speed = 60
; travel_speed = 130
; extrusion_width_ratio = 0
; scale = 1
; single wall width = 0.53mm

M104 S200 ; set temperature
G28 ; home all axes
M109 S200 ; wait for temperature to be reached
G90 ; use absolute coordinates
G21 ; set units to millimeters
G92 E0 ; reset extrusion distance
M82 ; use absolute distances for extrusion
G1 Z0.400 F7800.000
G1 X67.047 Y95.697
G1 F1800.000 E1.00000
G1 X90.517 Y83.047 F540.000 E1.78401
G1 X91.407 Y82.657 E1.81258
G1 X94.707 Y81.517 E1.91524
G1 X95.667 Y81.267 E1.94441
G1 X99.097 Y80.687 E2.04671
G1 X100.077 Y80.607 E2.07562
G1 X103.567 Y80.597 E2.17824
G1 X104.547 Y80.677 E2.20716
G1 X107.987 Y81.237 E2.30964
G1 X108.957 Y81.477 E2.33903
G1 X112.257 Y82.597 E2.44150
G1 X113.157 Y82.987 E2.47034
G1 X116.237 Y84.637 E2.57309
G1 X117.057 Y85.167 E2.60180
G1 X119.817 Y87.287 E2.70414
G1 X120.307 Y87.707 E2.72311
G1 X133.307 Y100.177 E3.25282
G1 X133.717 Y100.647 E3.27116
G1 X134.087 Y101.157 E3.28969
G1 X135.327 Y103.587 E3.36991
G1 X135.447 Y103.887 E3.37941
G1 X135.637 Y104.497 E3.39820
G1 X135.767 Y105.117 E3.41682
G1 X136.057 Y107.187 E3.47829
G1 X136.087 Y107.807 E3.49654
G1 X136.077 Y108.117 E3.50566
G1 X135.657 Y110.807 E3.58572
G1 X135.587 Y111.107 E3.59478
G1 X135.497 Y111.407 E3.60399
G1 X135.267 Y111.997 E3.62261
G1 X134.157 Y114.137 E3.69350
G1 X133.997 Y114.407 E3.70272
G1 X133.627 Y114.917 E3.72125
G1 X131.697 Y116.857 E3.80172
G1 X131.207 Y117.247 E3.82014
G1 X130.947 Y117.427 E3.82943
G1 X130.667 Y117.597 E3.83907
G1 X128.517 Y118.677 E3.90982
G1 X127.647 Y118.977 E3.93688
G1 X127.047 Y119.107 E3.95493
G1 X124.977 Y119.427 E4.01652
G1 X124.367 Y119.457 E4.03448
G1 X123.467 Y119.397 E4.06100
G1 X68.517 Y111.297 E5.69429
G1 X68.017 Y111.157 E5.70956
G1 X67.297 Y110.867 E5.73238
G1 X66.617 Y110.487 E5.75529
G1 X66.197 Y110.187 E5.77046
G1 X65.617 Y109.667 E5.79337
G1 X64.957 Y108.867 E5.82387
G1 X64.557 Y108.197 E5.84681
G1 X64.247 Y107.487 E5.86959
G1 X64.097 Y106.997 E5.88466
G1 X63.987 Y106.487 E5.90000
G1 X63.917 Y105.977 E5.91514
G1 X63.917 Y100.457 E6.07746
G1 X63.987 Y99.947 E6.09260
G1 X64.097 Y99.447 E6.10765
G1 X64.247 Y98.947 E6.12300
G1 X64.337 Y98.707 E6.13054
G1 X64.557 Y98.237 E6.14580
G1 X64.817 Y97.787 E6.16108
G1 X65.107 Y97.367 E6.17609
G1 X65.607 Y96.777 E6.19883
G1 X66.187 Y96.257 E6.22173
G1 X66.607 Y95.957 E6.23691
G1 X66.979 Y95.737 E6.24962
G1 F1800.000 E5.24962
G92 E0
G1 X120.475 Y106.454 F7800.000
G1 F1800.000 E1.00000
G1 X121.074 Y105.301 F540.000 E1.03820
G1 X121.960 Y104.416 E1.07501
G1 X123.099 Y103.835 E1.11263
G1 X124.363 Y103.635 E1.15025
G1 X125.626 Y103.835 E1.18786
G1 X126.766 Y104.416 E1.22548
G1 X127.671 Y105.320 E1.26309
G1 X128.251 Y106.460 E1.30071
G1 X128.452 Y107.724 E1.33832
G1 X128.250 Y108.993 E1.37613
G1 X127.651 Y110.146 E1.41433
G1 X126.766 Y111.031 E1.45114
G1 X125.626 Y111.612 E1.48876
G1 X124.693 Y111.760 E1.51656
G1 X124.693 Y111.864 E1.51963
G1 X124.363 Y111.812 E1.52945
G1 X124.363 Y111.812 E1.52945
G1 X123.099 Y111.612 E1.56706
G1 X121.960 Y111.031 E1.60468
G1 X121.051 Y110.122 E1.64249
G1 X120.470 Y108.960 E1.68069
G1 X120.274 Y107.724 E1.71750
G1 X120.463 Y106.531 E1.75299
G1 X120.971 Y106.617 F7800.000
G1 X121.495 Y105.609 F540.000 E1.78639
G1 X122.266 Y104.838 E1.81847
G1 X123.261 Y104.331 E1.85128
G1 X124.363 Y104.156 E1.88410
G1 X125.465 Y104.331 E1.91692
G1 X126.460 Y104.838 E1.94974
G1 X127.249 Y105.627 E1.98255
G1 X127.755 Y106.621 E2.01537
G1 X127.930 Y107.724 E2.04819
G1 X127.755 Y108.830 E2.08113
G1 X127.231 Y109.838 E2.11453
G1 X126.460 Y110.609 E2.14661
G1 X125.465 Y111.116 E2.17943
G1 X124.363 Y111.291 E2.21224
G1 X124.177 Y111.261 E2.21777
G1 X124.177 Y111.261 E2.21777
G1 X123.261 Y111.116 E2.24506
G1 X122.266 Y110.609 E2.27788
G1 X121.474 Y109.817 E2.31082
G1 X120.966 Y108.801 E2.34422
G1 X120.796 Y107.724 E2.37630
G1 X120.959 Y106.695 E2.40693
G1 X121.467 Y106.780 F7800.000
G1 X121.915 Y105.917 F540.000 E2.43553
G1 X122.573 Y105.260 E2.46287
G1 X123.422 Y104.827 E2.49089
G1 X124.363 Y104.678 E2.51891
G1 X125.304 Y104.827 E2.54693
G1 X126.153 Y105.260 E2.57495
G1 X126.827 Y105.933 E2.60296
G1 X127.259 Y106.782 E2.63098
G1 X127.408 Y107.724 E2.65900
G1 X127.259 Y108.667 E2.68709
G1 X126.810 Y109.530 E2.71569
G1 X126.153 Y110.187 E2.74303
G1 X125.304 Y110.620 E2.77105
G1 X124.363 Y110.769 E2.79907
G1 X123.422 Y110.620 E2.82708
G1 X122.573 Y110.187 E2.85510
G1 X121.897 Y109.512 E2.88319
G1 X121.463 Y108.642 E2.91179
G1 X121.317 Y107.724 E2.93913
G1 X121.455 Y106.858 E2.96490
G1 F1800.000 E1.96490
G92 E0
G1 X125.793 Y112.191 F7800.000
G1 F1800.000 E1.00000
G1 X124.345 Y112.415 F540.000 E1.04306
G1 X122.900 Y112.181 E1.08611
G1 X121.597 Y111.513 E1.12917
G1 X120.564 Y110.475 E1.17223
G1 X119.900 Y109.170 E1.21528
G1 X119.646 Y107.562 E1.26316
G1 X119.346 Y104.394 E1.35672
G1 X118.424 Y101.215 E1.45406
G1 X116.892 Y98.203 E1.55341
G1 X114.840 Y95.562 E1.65179
G1 X112.328 Y93.352 E1.75014
G1 X109.447 Y91.653 E1.84849
G1 X106.299 Y90.525 E1.94684
G1 X103.022 Y90.011 E2.04437
G1 X99.652 Y90.119 E2.14353
G1 X96.388 Y90.857 E2.24190
G1 X93.322 Y92.193 E2.34026
G1 X90.561 Y94.080 E2.43861
G1 X88.203 Y96.452 E2.53697
G1 X86.331 Y99.225 E2.63532
G1 X85.014 Y102.299 E2.73367
G1 X84.545 Y104.431 E2.79786
G1 X70.930 Y104.431 E3.19821
G1 X70.930 Y102.016 E3.26921
G1 X82.481 Y102.016 E3.60885
G1 X84.200 Y98.112 E3.73429
G1 X86.015 Y95.338 E3.83177
G1 X88.280 Y92.883 E3.92999
G1 X90.877 Y90.861 E4.02678
G1 X93.791 Y89.280 E4.12429
G1 X96.926 Y88.198 E4.22179
G1 X100.195 Y87.644 E4.31929
G1 X103.511 Y87.634 E4.41678
G1 X106.783 Y88.168 E4.51428
G1 X109.924 Y89.231 E4.61178
G1 X112.847 Y90.795 E4.70928
G1 X115.475 Y92.818 E4.80678
G1 X117.736 Y95.243 E4.90428
G1 X121.202 Y100.271 E5.08386
G1 X123.344 Y102.061 E5.16595
G1 X127.157 Y103.955 E5.29113
G1 X128.183 Y105.000 E5.33419
G1 X128.836 Y106.310 E5.37725
G1 X129.054 Y107.758 E5.42030
G1 X128.815 Y109.203 E5.46336
G1 X128.142 Y110.503 E5.50642
G1 X127.100 Y111.533 E5.54948
G1 X125.863 Y112.156 E5.59022
G1 X125.952 Y112.688 F7800.000
G1 X124.344 Y112.936 F540.000 E5.63806
G1 X122.737 Y112.676 E5.68590
G1 X121.290 Y111.934 E5.73375
G1 X120.141 Y110.781 E5.78159
G1 X119.404 Y109.331 E5.82944
G1 X119.135 Y107.626 E5.88018
G1 X118.838 Y104.491 E5.97278
G1 X117.942 Y101.405 E6.06726
G1 X116.455 Y98.481 E6.16374
G1 X114.463 Y95.916 E6.25924
G1 X112.025 Y93.771 E6.35473
G1 X109.227 Y92.122 E6.45021
G1 X106.171 Y91.027 E6.54570
G1 X102.990 Y90.527 E6.64037
G1 X99.717 Y90.633 E6.73665
G1 X96.549 Y91.348 E6.83215
G1 X93.573 Y92.645 E6.92764
G1 X90.892 Y94.478 E7.02312
G1 X88.602 Y96.781 E7.11861
G1 X86.786 Y99.472 E7.21410
G1 X85.506 Y102.457 E7.30958
G1 X84.960 Y104.946 E7.38452
G1 X70.415 Y104.946 E7.81221
G1 X70.415 Y101.501 E7.91350
G1 X82.145 Y101.501 E8.25841
G1 X83.745 Y97.866 E8.37521
G1 X85.607 Y95.021 E8.47521
G1 X87.930 Y92.503 E8.57593
G1 X90.594 Y90.429 E8.67521
G1 X93.583 Y88.807 E8.77521
G1 X96.798 Y87.697 E8.87521
G1 X100.151 Y87.129 E8.97522
G1 X103.552 Y87.119 E9.07522
G1 X106.908 Y87.666 E9.17522
G1 X110.129 Y88.757 E9.27522
G1 X113.128 Y90.361 E9.37522
G1 X115.823 Y92.435 E9.47522
G1 X118.142 Y94.923 E9.57522
G1 X121.581 Y99.916 E9.75352
G1 X123.626 Y101.625 E9.83186
G1 X127.467 Y103.536 E9.95804
G1 X128.607 Y104.697 E10.00588
G1 X129.333 Y106.153 E10.05373
G1 X129.575 Y107.762 E10.10157
G1 X129.310 Y109.367 E10.14942
G1 X128.562 Y110.812 E10.19726
G1 X127.405 Y111.957 E10.24510
G1 X126.022 Y112.653 E10.29063
G1 X126.111 Y113.185 F7800.000
G1 X124.342 Y113.458 F540.000 E10.34326
G1 X122.575 Y113.172 E10.39590
G1 X120.982 Y112.355 E10.44853
G1 X119.719 Y111.087 E10.50116
G1 X118.908 Y109.491 E10.55379
G1 X118.623 Y107.691 E10.60740
G1 X118.330 Y104.588 E10.69904
G1 X117.461 Y101.595 E10.79067
G1 X116.018 Y98.758 E10.88427
G1 X114.086 Y96.271 E10.97690
G1 X111.721 Y94.190 E11.06951
G1 X109.008 Y92.590 E11.16213
G1 X106.043 Y91.528 E11.25475
G1 X102.958 Y91.044 E11.34656
G1 X99.783 Y91.146 E11.43998
G1 X96.711 Y91.840 E11.53260
G1 X93.823 Y93.098 E11.62522
G1 X91.223 Y94.876 E11.71784
G1 X89.002 Y97.109 E11.81046
G1 X87.240 Y99.720 E11.90308
G1 X85.999 Y102.615 E11.99569
G1 X85.374 Y105.461 E12.08137
G1 X69.900 Y105.461 E12.53640
G1 X69.900 Y100.986 E12.66798
G1 X81.808 Y100.986 E13.01816
G1 X83.291 Y97.619 E13.12634
G1 X85.200 Y94.703 E13.22884
G1 X87.580 Y92.122 E13.33206
G1 X90.311 Y89.996 E13.43384
G1 X93.375 Y88.334 E13.53634
G1 X96.670 Y87.196 E13.63884
G1 X100.107 Y86.614 E13.74134
G1 X103.592 Y86.604 E13.84385
G1 X107.033 Y87.165 E13.94635
G1 X110.335 Y88.283 E14.04885
G1 X113.408 Y89.927 E14.15135
G1 X116.171 Y92.053 E14.25385
G1 X118.548 Y94.603 E14.35635
G1 X121.961 Y99.562 E14.53339
G1 X123.907 Y101.188 E14.60796
G1 X127.778 Y103.117 E14.73515
G1 X129.032 Y104.395 E14.78778
G1 X129.831 Y105.996 E14.84041
G1 X130.097 Y107.766 E14.89304
G1 X129.805 Y109.532 E14.94567
G1 X128.982 Y111.122 E14.99830
G1 X127.709 Y112.380 E15.05093
G1 X126.181 Y113.150 E15.10125
G1 F1800.000 E14.10125
G92 E0
G1 X120.432 Y105.855 F7800.000
G1 F1800.000 E1.00000
G1 X119.809 Y105.232 F1080.000 E1.02626
G1 X119.732 Y104.421 F7800.000
G1 X120.683 Y105.372 F1080.000 E1.06636
G1 X120.995 Y104.949 F7800.000
G1 X119.506 Y103.460 F1080.000 E1.12914
G1 X119.206 Y102.424 F7800.000
G1 X121.363 Y104.581 F1080.000 E1.22010
G1 X121.730 Y104.214 F7800.000
G1 X118.905 Y101.388 F1080.000 E1.33923
G1 X118.372 Y100.120 F7800.000
G1 X122.194 Y103.942 F1080.000 E1.50039
G1 X122.681 Y103.695 F7800.000
G1 X117.611 Y98.625 F1080.000 E1.71415
G1 X118.609 Y97.417 F7800.000
G1 X112.106 Y90.913 F1080.000 E1.98838
G1 X111.046 Y92.059 F7800.000
G1 X108.019 Y89.032 F1080.000 E2.11601
G1 X106.908 Y88.656 F7800.000
G1 X109.457 Y91.205 F1080.000 E2.22349
G1 X108.311 Y90.794 F7800.000
G1 X105.946 Y88.429 F1080.000 E2.32323
G1 X105.067 Y88.286 F7800.000
G1 X107.166 Y90.384 F1080.000 E2.41171
G1 X106.152 Y90.106 F7800.000
G1 X104.189 Y88.143 F1080.000 E2.49451
G1 X103.312 Y88.001 F7800.000
G1 X105.280 Y89.970 F1080.000 E2.57750
G1 X104.409 Y89.832 F7800.000
G1 X102.580 Y88.003 F1080.000 E2.65464
G1 X101.846 Y88.005 F7800.000
G1 X103.537 Y89.695 F1080.000 E2.72590
G1 X102.763 Y89.657 F7800.000
G1 X101.113 Y88.008 F1080.000 E2.79546
G1 X100.380 Y88.010 F7800.000
G1 X102.051 Y89.680 F1080.000 E2.86589
G1 X101.338 Y89.703 F7800.000
G1 X99.710 Y88.075 F1080.000 E2.93454
G1 X99.082 Y88.181 F7800.000
G1 X100.627 Y89.726 F1080.000 E2.99967
G1 X99.915 Y89.749 F7800.000
G1 X98.453 Y88.288 F1080.000 E3.06128
G1 X97.825 Y88.394 F7800.000
G1 X99.286 Y89.856 F1080.000 E3.12291
G1 X98.687 Y89.992 F7800.000
G1 X97.196 Y88.501 F1080.000 E3.18577
G1 X96.611 Y88.652 F7800.000
G1 X98.087 Y90.127 F1080.000 E3.24799
G1 X97.488 Y90.262 F7800.000
G1 X96.065 Y88.840 F1080.000 E3.30797
G1 X95.519 Y89.028 F7800.000
G1 X96.888 Y90.398 F1080.000 E3.36571
G1 X96.301 Y90.546 F7800.000
G1 X94.972 Y89.217 F1080.000 E3.42173
G1 X94.426 Y89.406 F7800.000
G1 X95.789 Y90.769 F1080.000 E3.47921
G1 X95.277 Y90.992 F7800.000
G1 X93.880 Y89.594 F1080.000 E3.53815
G1 X93.399 Y89.849 F7800.000
G1 X94.765 Y91.215 F1080.000 E3.59574
G1 X94.253 Y91.438 F7800.000
G1 X92.923 Y90.108 F1080.000 E3.65183
G1 X92.446 Y90.367 F7800.000
G1 X93.741 Y91.661 F1080.000 E3.70642
G1 X93.229 Y91.885 F7800.000
G1 X91.969 Y90.625 F1080.000 E3.75952
G1 X91.493 Y90.883 F7800.000
G1 X92.791 Y92.181 F1080.000 E3.81425
G1 X92.354 Y92.480 F7800.000
G1 X91.017 Y91.142 F1080.000 E3.87066
G1 X90.603 Y91.463 F7800.000
G1 X91.918 Y92.779 F1080.000 E3.92611
G1 X91.481 Y93.077 F7800.000
G1 X90.189 Y91.785 F1080.000 E3.98058
G1 X89.776 Y92.107 F7800.000
G1 X91.044 Y93.376 F1080.000 E4.03406
G1 X90.608 Y93.674 F7800.000
G1 X89.363 Y92.429 F1080.000 E4.08657
G1 X88.949 Y92.751 F7800.000
G1 X90.205 Y94.006 F1080.000 E4.13949
G1 X89.838 Y94.374 F7800.000
G1 X88.536 Y93.072 F1080.000 E4.19439
G1 X88.175 Y93.447 F7800.000
G1 X89.471 Y94.743 F1080.000 E4.24904
G1 X89.105 Y95.112 F7800.000
G1 X87.822 Y93.829 F1080.000 E4.30312
G1 X87.470 Y94.211 F7800.000
G1 X88.739 Y95.480 F1080.000 E4.35662
G1 X88.372 Y95.849 F7800.000
G1 X87.117 Y94.594 F1080.000 E4.40954
G1 X86.764 Y94.976 F7800.000
G1 X88.006 Y96.218 F1080.000 E4.46188
G1 X87.699 Y96.646 F7800.000
G1 X86.412 Y95.359 F1080.000 E4.51616
G1 X86.096 Y95.779 F7800.000
G1 X87.403 Y97.085 F1080.000 E4.57123
G1 X87.107 Y97.524 F7800.000
G1 X85.806 Y96.223 F1080.000 E4.62608
G1 X85.515 Y96.667 F7800.000
G1 X86.811 Y97.963 F1080.000 E4.68069
G1 X86.514 Y98.402 F7800.000
G1 X85.224 Y97.112 F1080.000 E4.73507
G1 X84.933 Y97.556 F7800.000
G1 X86.218 Y98.841 F1080.000 E4.78923
G1 X85.948 Y99.306 F7800.000
G1 X84.643 Y98.001 F1080.000 E4.84428
G1 X84.387 Y98.479 F7800.000
G1 X85.728 Y99.820 F1080.000 E4.90081
G1 X85.507 Y100.335 F7800.000
G1 X84.162 Y98.990 F1080.000 E4.95753
G1 X83.937 Y99.500 F7800.000
G1 X85.287 Y100.850 F1080.000 E5.01442
G1 X85.066 Y101.364 F7800.000
G1 X83.713 Y100.011 F1080.000 E5.07148
G1 X83.488 Y100.521 F7800.000
G1 X84.845 Y101.879 F1080.000 E5.12872
G1 X84.643 Y102.411 F7800.000
G1 X83.263 Y101.031 F1080.000 E5.18689
G1 X83.039 Y101.542 F7800.000
G1 X84.510 Y103.014 F1080.000 E5.24895
G1 X84.378 Y103.616 F7800.000
G1 X82.814 Y102.052 F1080.000 E5.31490
G1 X82.409 Y102.383 F7800.000
G1 X84.090 Y104.064 F1080.000 E5.38578
G1 X83.356 Y104.064 F7800.000
G1 X81.675 Y102.383 F1080.000 E5.45667
G1 X80.939 Y102.383 F7800.000
G1 X82.621 Y104.064 F1080.000 E5.52755
G1 X81.885 Y104.064 F7800.000
G1 X80.204 Y102.383 F1080.000 E5.59843
G1 X79.469 Y102.383 F7800.000
G1 X81.150 Y104.064 F1080.000 E5.66932
G1 X80.415 Y104.064 F7800.000
G1 X78.734 Y102.383 F1080.000 E5.74021
G1 X77.999 Y102.383 F7800.000
G1 X79.680 Y104.064 F1080.000 E5.81109
G1 X78.945 Y104.064 F7800.000
G1 X77.264 Y102.383 F1080.000 E5.88198
G1 X76.529 Y102.383 F7800.000
G1 X78.210 Y104.064 F1080.000 E5.95286
G1 X77.475 Y104.064 F7800.000
G1 X75.793 Y102.383 F1080.000 E6.02375
G1 X75.058 Y102.383 F7800.000
G1 X76.739 Y104.064 F1080.000 E6.09463
G1 X76.005 Y104.064 F7800.000
G1 X74.324 Y102.383 F1080.000 E6.16552
G1 X73.588 Y102.383 F7800.000
G1 X75.270 Y104.064 F1080.000 E6.23641
G1 X74.534 Y104.064 F7800.000
G1 X72.853 Y102.383 F1080.000 E6.30729
G1 X72.118 Y102.383 F7800.000
G1 X73.799 Y104.064 F1080.000 E6.37818
G1 X73.064 Y104.064 F7800.000
G1 X71.383 Y102.383 F1080.000 E6.44906
G1 X71.297 Y103.032 F7800.000
G1 X72.329 Y104.064 F1080.000 E6.49258
G1 X71.594 Y104.064 F7800.000
G1 X71.297 Y103.767 F1080.000 E6.50512
G1 F1800.000 E5.50512
G92 E0
G1 X109.130 Y89.408 F7800.000
G1 F1800.000 E1.00000
G1 X112.974 Y93.252 F1080.000 E1.16208
G1 F1800.000 E0.16208
G92 E0
G1 X114.979 Y93.051 F7800.000
G1 F1800.000 E1.00000
G1 X115.277 Y93.349 F1080.000 E1.01259
G1 F1800.000 E0.01259
G92 E0
G1 X116.070 Y96.348 F7800.000
G1 F1800.000 E1.00000
G1 X123.192 Y103.471 F1080.000 E1.30033
G1 X123.827 Y103.370 F7800.000
G1 X122.251 Y101.794 F1080.000 E1.36679
G1 F1800.000 E0.36679
G92 E0
G1 X120.286 Y99.829 F7800.000
G1 F1800.000 E1.00000
G1 X110.525 Y90.068 F1080.000 E1.41156
G1 F1800.000 E0.41156
G92 E0
G1 Z0.800 F7800.000
G1 X121.960 Y104.416
G1 F1800.000 E1.00000
G1 X123.099 Y103.835 F1800.000 E1.03762
G1 X124.363 Y103.635 E1.07523
G1 X125.626 Y103.835 E1.11285
G1 X126.766 Y104.416 E1.15046
G1 X127.671 Y105.320 E1.18808
G1 X128.251 Y106.460 E1.22570
G1 X128.452 Y107.724 E1.26331
G1 X128.251 Y108.987 E1.30093
G1 X127.671 Y110.127 E1.33854
G1 X126.766 Y111.031 E1.37616
G1 X125.626 Y111.612 E1.41378
G1 X124.363 Y111.812 E1.45139
G1 X124.056 Y111.764 E1.46054
G1 X124.056 Y111.764 E1.46054
G1 X123.099 Y111.612 E1.48901
G1 X121.960 Y111.031 E1.52662
G1 X121.055 Y110.127 E1.56424
G1 X120.474 Y108.987 E1.60186
G1 X120.274 Y107.724 E1.63947
G1 X120.474 Y106.460 E1.67709
G1 X121.055 Y105.320 E1.71470
G1 X121.904 Y104.471 E1.75000
G1 X122.266 Y104.838 F7800.000
G1 X123.261 Y104.331 F1800.000 E1.78282
G1 X124.363 Y104.156 E1.81564
