; generated by Slic3r 0.9.10b on 2013-11-21 at 13:33:23
; layer_height = 0.2
; perimeters = 3
; top_solid_layers = 3
; bottom_solid_layers = 3
; fill_density = 0.4
; perimeter_speed = 30
; infill_speed = 60
; travel_speed = 130
; nozzle_diameter = 0.5
; filament_diameter = 3
; extrusion_multiplier = 1
; perimeters extrusion width = 0.85mm
; infill extrusion width = 1.02mm
; solid infill extrusion width = 0.85mm
; top infill extrusion width = 0.85mm
; first layer extrusion width = 0.40mm

G21 ; set units to millimeters
M107
M104 S200 ; set temperature
G28 ; home all axes
G1 Z5 F5000 ; lift nozzle

M109 S200 ; wait for temperature to be reached
G90 ; use absolute coordinates
G92 E0
M82 ; use absolute distances for extrusion
G1 F1800.000 E-1.00000
G92 E0
G1 Z0.200 F7800.000
G1 X92.960 Y92.960
G1 F1800.000 E1.00000
G1 X93.930 Y92.160 F600.000 E1.01499
G1 X95.040 Y91.570 E1.02998
G1 X96.250 Y91.200 E1.04507
G1 X97.500 Y91.080 E1.0600	  ;gap here
G1 X92.920 Y93.009 E1.71812
G1 F1800.000 E0.71812
G92 E0
G1 X98.554 Y98.554 F7800.000
G1 F1800.000 E1.00000
G1 X101.446 Y98.554 F600.000 E1.03450
G1 X101.446 Y101.446 E1.06899
G1 X98.554 Y101.446 E1.10349
G1 X98.554 Y98.617 E1.13723
G1 X98.132 Y98.132 F7800.000
G1 X101.868 Y98.132 F600.000 E1.18177
G1 X101.868 Y101.868 E1.22632
G1 X98.132 Y101.868 E1.27087
